icons/mail-close-fill.svg

<svg viewBox="0 0 24 24" fill="currentColor" xmlns="http://www.w3.org/2000/svg">
    <path d="M22 13.3414C21.3744 13.1203 20.7013 13 20 13C16.6863 13 14 15.6863 14 19C14 19.7013 14.1203 20.3744 14.3414 21H3C2.44772 21 2 20.5523 2 20V4C2 3.44772 2.44772 3 3 3H21C21.5523 3 22 3.44772 22 4V13.3414ZM12.0606 11.6829L5.64722 6.2377L4.35278 7.7623L12.0731 14.3171L19.6544 7.75616L18.3456 6.24384L12.0606 11.6829ZM21.4142 19L23.5355 21.1213L22.1213 22.5355L20 20.4142L17.8787 22.5355L16.4645 21.1213L18.5858 19L16.4645 16.8787L17.8787 15.4645L20 17.5858L22.1213 15.4645L23.5355 16.8787L21.4142 19Z"/>
</svg>

<svg xmlns="http://www.w3.org/2000/svg" viewBox="0 0 24 24">
    <g>
        <path fill="none" d="M0 0h24v24H0z"/>
        <path d="M22 13.341A6 6 0 0 0 14.341 21H3a1 1 0 0 1-1-1V4a1 1 0 0 1 1-1h18a1 1 0 0 1 1 1v9.341zm-9.94-1.658L5.648 6.238 4.353 7.762l7.72 6.555 7.581-6.56-1.308-1.513-6.285 5.439zM21.415 19l2.122 2.121-1.415 1.415L20 20.414l-2.121 2.122-1.415-1.415L18.586 19l-2.122-2.121 1.415-1.415L20 17.586l2.121-2.122 1.415 1.415L21.414 19z"/>
    </g>
</svg>
